floor-lamp-dual-outline.svg

<svg fill="currentColor" viewBox="0 0 24 24"><path d="m11.73 10.06-1.56 1.18.83.96V20H8v2h8v-2h-3v-7.7l.85-1.04-1.58-1.19zM8.32 5.31l.91 2.88-.23.18L6.47 6.7zM9.39 2 3 6.81l6.08 4.01 2.47-1.89zm6.28 3.3 1.86 1.4L15 8.37l-.23-.17zM14.61 2l-2.17 6.95 2.48 1.87L21 6.81z"/></svg>

<svg  viewBox="0 0 24 24" fill="currentColor"><path  d="M11.73 10.06L10.17 11.24L11 12.2V20H8V22H16V20H13V12.3L13.85 11.26L12.27 10.07L11.73 10.06M8.32 5.31L9.23 8.19L9 8.37L6.47 6.7L8.32 5.31M9.39 2L3 6.81L9.08 10.82L11.55 8.93L9.39 2M15.67 5.3L17.53 6.7L15 8.37L14.77 8.2L15.67 5.3M14.61 2L12.44 8.95L14.92 10.82L21 6.81L14.61 2Z"/></svg>
